src/images/pages/trade-explanation/zh_tw/up.svg

<svg width="299" height="199" xmlns="http://www.w3.org/2000/svg"><g transform="translate(2 2)" fill="none" fill-rule="evenodd"><path stroke="#C2C2C2" stroke-width="2.423" fill="#F1F2F2" d="M0 0h295v195H0z"/><path d="M2 54.29h291M2 74.618h291M2 94.908h291M2 135.526h291M2 155.816h291M2 176.106h291M37.127 34v160M73.943 34v160M110.76 34v160m36.816-160v160m36.816-160v160m36.816-160v160m36.816-160v160" stroke="#DFDEDE" stroke-width="1.211"/><path d="M26.15 149.892h1.862v-1.61h-1.484v-.868h6.79v.868H31.96v1.61h1.806v.896H31.96v3.22h-.924v-3.22h-2.184c-.084.742-.252 1.372-.504 1.876-.336.658-.91 1.176-1.694 1.54l-.504-.798c.686-.336 1.176-.784 1.456-1.344.154-.364.266-.798.336-1.274H26.15v-.896zm4.886 0v-1.61h-2.114v1.61h2.114zm-5.81-5.334v1.022h3.15v-1.022h-3.15zm3.15-.714v-1.078h-3.15v1.078h3.15zm3.136.714v.994h3.234v-.994h-3.234zm3.234-.714v-1.05h-3.234v1.05h3.234zm-5.39-1.876v4.424h-4.13v7.882h-1.008v-12.306h5.138zm5.39 4.382h-4.214v-4.368h5.208v10.85c0 .924-.42 1.386-1.26 1.386-.504 0-1.008-.014-1.512-.042l-.238-.896c.504.028.966.056 1.386.056.42 0 .63-.28.63-.812v-6.174zm4.55-4.844l.994.084a120.1 120.1 0 0 1-.378 2.646h2.072v.588c-.112 2.268-.504 4.214-1.176 5.866.658.686 1.204 1.302 1.624 1.862l-.672.784a21.617 21.617 0 0 0-1.4-1.666c-.56 1.064-1.246 1.988-2.086 2.772l-.63-.798a9.204 9.204 0 0 0 2.03-2.716 73.777 73.777 0 0 0-1.806-1.778c.336-1.218.63-2.534.882-3.948h-1.12v-.966h1.288c.14-.882.266-1.792.378-2.73zm.798 8.456c.532-1.4.84-2.982.938-4.76h-1.274c-.266 1.47-.532 2.688-.812 3.654.406.378.784.742 1.148 1.106zm9.282-1.512v5.964h-.966v-.84h-4.284v.84h-.966v-5.964h6.216zm-5.25 4.172h4.284v-3.248h-4.284v3.248zm-1.512-5.432l-.154-.91c.812-.42 1.82-1.988 3.024-4.732l.952.322c-.84 1.82-1.666 3.262-2.506 4.34a47.68 47.68 0 0 0 4.48-.49 26.867 26.867 0 0 0-1.19-2.128l.868-.42a35.347 35.347 0 0 1 2.17 4.046l-.938.448c-.168-.378-.322-.742-.49-1.092a77.818 77.818 0 0 1-6.216.616z" fill="#2A3052" fill-rule="nonzero"/><path d="M2 115.5h291" stroke="#2A3052" stroke-width="1.211" stroke-linejoin="round"/><path d="M0 32.5h295" stroke="#C2C2C2" stroke-width="2.423"/><path stroke="#2A3052" stroke-width="3.634" stroke-linecap="round" stroke-linejoin="round" d="M38 114.479l28.385-26.24 38.636 38.911 35.369-51.021L190.627 131l42.165-73L259 73.96"/><path d="M186.298 146.29h-34.925L146 138l-5.373 8.29h-34.925a4.69 4.69 0 0 0-3.345 1.43 4.829 4.829 0 0 0-1.357 3.415v25.02c-.016 2.653 2.086 4.82 4.702 4.845h80.596a4.69 4.69 0 0 0 3.345-1.43 4.829 4.829 0 0 0 1.357-3.415v-25.02c.016-2.654-2.086-4.82-4.702-4.845z" fill="#E88024"/><ellipse cx="8.512" cy="8.677" rx="8.137" ry="8.486" opacity=".6" transform="translate(250 66)" fill="#FFF"/><ellipse stroke="#E88024" stroke-width="2.423" cx="258" cy="74.5" rx="8" ry="8.5"/><ellipse cx="9.037" cy="9.076" rx="8.137" ry="8.486" opacity=".6" transform="translate(28 106)" fill="#FFF"/><ellipse stroke="#E88024" stroke-width="2.423" cx="37" cy="115.5" rx="8" ry="8.5"/><path d="M21.792 11.73a16.42 16.42 0 0 1 1.89 1.988L22.66 14.74c-.448-.63-1.078-1.302-1.904-2.016l1.036-.994zm-.35 3.346c.756.672 1.4 1.358 1.904 2.03l-1.008 1.008c-.448-.644-1.092-1.316-1.918-2.044l1.022-.994zm.672 3.766l1.288.518a63.944 63.944 0 0 1-1.484 5.04l-1.358-.616a49.388 49.388 0 0 0 1.554-4.942zm10.766-6.93V13.2h-3.514v.77h3.108v1.232h-3.108V16h3.108v1.232h-3.108v.77h3.85v1.316h-2.058c.056.364.154.728.28 1.064.336-.196.644-.434.952-.714l.868.868c-.392.364-.84.672-1.344.896.406.7.938 1.288 1.61 1.778l-.756 1.232c-1.526-1.274-2.45-2.982-2.786-5.124h-.784v3.514c.504-.154.994-.35 1.47-.574l.238 1.204c-.91.392-1.96.728-3.136.98l-.518-1.106c.434-.168.658-.406.658-.728v-3.29h-.7v-1.316h.784v-6.09h4.886zm-7.784 4.48l-.182 1.974h2.072c0 2.352-.07 3.92-.196 4.718s-.7 1.232-1.722 1.316a10.2 10.2 0 0 1-.924-.042l-.336-1.232c.308.028.63.056.952.056.49 0 .77-.224.84-.672.056-.462.098-1.414.098-2.87h-2.086l.378-4.522h1.638V13.2h-1.806v-1.274h3.094v4.466h-1.82z" fill="#000" fill-rule="nonzero"/><path d="M257.032 125.784v10.404h-.864v-.78h-6.312v.804h-.876v-10.428h8.052zm-7.176 8.784h6.312v-2.256h-6.312v2.256zm0-3.048h6.312v-2.112h-6.312v2.112zm0-2.904h6.312v-1.992h-6.312v1.992zm12.276 1.188v6.372h-.804v-6.264a14.534 14.534 0 0 1-1.464 3.276l-.372-.948c.84-1.188 1.428-2.544 1.788-4.08h-1.428v-.792h1.476v-2.172h.804v2.172h1.308v.792h-1.308v.708a25.47 25.47 0 0 1 1.596 2.052l-.504.756c-.42-.768-.78-1.392-1.092-1.872zm1.848-2.52h1.764v-.9h-2.1v-.744h6.648v.744H268.3v.9h1.752v2.772h-6.072v-2.772zm3.6-.9h-1.116v.9h1.116v-.9zm1.716 3v-1.428h-1.056v1.428h1.056zm-1.728 0v-1.428h-1.092v1.428h1.092zm-1.764 0v-1.428h-1.068v1.428h1.068zm.612 6.78h-.996l-.168-.768c.312.024.6.048.888.048.264 0 .408-.132.408-.372v-1.944h-2.832v-.744h6.6v.744h-2.976v2.136c0 .6-.312.9-.924.9zm-2.148-5.34h5.568v.744h-5.568v-.744zm.648 2.796l.552.48a8.704 8.704 0 0 1-1.956 2.028l-.492-.636a8.51 8.51 0 0 0 1.896-1.872zm3.876.012a13.422 13.422 0 0 1 1.776 1.872l-.576.564c-.408-.6-.984-1.248-1.728-1.932l.528-.504z" fill="#6D6E71" fill-rule="nonzero"/><path d="M246.204 102.858l.91.112c-.07 1.204-.238 2.282-.504 3.206l-.91-.266c.28-.896.448-1.904.504-3.052zm2.394-.21c.196.868.378 1.82.546 2.856l-.938.21a35.75 35.75 0 0 0-.434-2.884l.826-.182zm1.386-3.556c.308.798.588 1.708.84 2.744l-.84.224c-.056-.238-.112-.476-.168-.7-1.316.392-2.59.658-3.794.812l-.266-.924c.182-.07.336-.168.462-.28.518-.504 1.134-1.344 1.862-2.52-.7.112-1.428.224-2.156.336l-.252-.924c.154-.07.294-.196.42-.378.728-1.148 1.344-2.478 1.876-3.962l.966.378c-.686 1.61-1.386 2.912-2.086 3.892a38.78 38.78 0 0 0 1.778-.252c.308-.532.616-1.106.952-1.708l.938.336c-1.344 2.352-2.436 4.004-3.304 4.956.784-.14 1.582-.308 2.394-.518-.14-.434-.28-.854-.42-1.26l.798-.252zm.238 3.192c.336.728.616 1.526.868 2.366l-.84.364a22.417 22.417 0 0 0-.812-2.478l.784-.252zm.434-6.916h3.388v-1.792h.994v1.792h3.346v.966h-3.346v2.128h3.038v.966h-7.042v-.966h3.01v-2.128h-3.388v-.966zm6.972 5.418v5.614h-.98v-.644h-4.144v.644h-.98v-5.614h6.104zm-5.124 4.018h4.144v-3.066h-4.144v3.066zm7.504-9.8h5.474v-1.4h1.036v1.4h5.446v.966h-5.446v1.372h4.41v3.962h-3.556c1.008 1.428 2.716 2.688 5.096 3.808l-.686.868c-2.478-1.386-4.214-2.94-5.222-4.676h-.042v5.082h-1.036v-5.082h-.042c-1.064 1.904-2.828 3.472-5.306 4.704l-.588-.924c2.324-.98 4.018-2.24 5.068-3.78H261.1v-3.962h4.382V95.97h-5.474v-.966zm9.912 5.376v-2.086h-3.402v2.086h3.402zm-4.438 0v-2.086h-3.374v2.086h3.374z" fill="#2A3052" fill-rule="nonzero"/><path d="M138.718 167.04v.88c0 .132-.022.264-.022.396h1.76v-1.276h-1.738zm1.738-1.43v-1.298h-1.738v1.298h1.738zm-1.87 4.136c-.22 1.408-.682 2.596-1.342 3.564l-1.386-1.254c.748-1.056 1.122-2.398 1.144-4.026v-5.324h5.17v8.932c0 1.034-.572 1.562-1.672 1.562h-1.012l-.462-1.716c.33.044.638.088.946.088.308 0 .484-.198.484-.55v-1.276h-1.87zm-.726-14.058h-1.694v-1.628h8.646c-.176-.33-.374-.638-.55-.902l2.266-.396c.22.396.418.814.616 1.298h8.69v1.628h-15.95v.77h14.63v1.474H137.86v-2.244zm17.028 17.204h-1.144c-.836 0-1.232-.396-1.232-1.188v-2.838l-.594.418c-.308-.528-.66-1.1-1.056-1.694-.022 1.32-.11 2.354-.286 3.102-.22.814-.682 1.694-1.364 2.618l-1.144-1.012-.55.616a10.785 10.785 0 0 0-1.694-1.76l1.056-.968c.506.374.968.792 1.386 1.254.286-.484.484-.902.594-1.298.176-.616.286-1.628.286-3.058v-4.356h5.082v8.47c0 .11.044.176.154.176h.242c.088 0 .154-.11.22-.33.044-.22.088-.99.132-2.288l1.386.462c-.132 1.672-.286 2.684-.462 3.08-.176.396-.528.594-1.012.594zm-4.026-6.468l.55-.352c.44.55.792 1.056 1.1 1.54v-3.19h-1.65v2.002zm-7.854-3.696h5.236v7.348h-5.236v-7.348zm3.52 6.05v-.88h-1.826v.88h1.826zm-1.826-1.936h1.826v-.858h-1.826v.858zm0-1.936h1.826v-.88h-1.826v.88zm-.352 5.324l1.078.968a9.02 9.02 0 0 1-2.024 2.068l-.968-1.254a8.23 8.23 0 0 0 1.914-1.782zm-5.786-11.638h14.806v3.41h-14.806v-3.41zm12.672 2.156v-.902h-10.538v.902h10.538z" fill="#FFF" fill-rule="nonzero"/></g></svg>

<?xml version="1.0" encoding="UTF-8"?>
<svg width="299px" height="199px" viewBox="0 0 299 199" version="1.1" xmlns="http://www.w3.org/2000/svg" xmlns:xlink="http://www.w3.org/1999/xlink">
    <!-- Generator: Sketch 52.3 (67297) - http://www.bohemiancoding.com/sketch -->
    <title>Traditional Chinese up</title>
    <desc>Created with Sketch.</desc>
    <g id="Traditional-Chinese-up" stroke="none" stroke-width="1" fill="none" fill-rule="evenodd">
        <g transform="translate(2.000000, 2.000000)">
            <polygon id="Path" stroke="#C2C2C2" stroke-width="2.422875" fill="#F1F2F2" points="0 0 295 0 295 195 0 195"></polygon>
            <path d="M2,54.2901264 L293,54.2901264 M2,74.6176884 L293,74.6176884 M2,94.9078147 L293,94.9078147 M2,135.525503 L293,135.525503 M2,155.81563 L293,155.81563 M2,176.105756 L293,176.105756 M37.1271602,34 L37.1271602,194 M73.9431261,34 L73.9431261,194 M110.759092,34 L110.759092,194 M147.575058,34 L147.575058,194 M184.391024,34 L184.391024,194 M221.20699,34 L221.20699,194 M258.022956,34 L258.022956,194" id="Shape" stroke="#DFDEDE" stroke-width="1.21125"></path>
            <path d="M26.15,149.892 L28.012,149.892 L28.012,148.282 L26.528,148.282 L26.528,147.414 L33.318,147.414 L33.318,148.282 L31.96,148.282 L31.96,149.892 L33.766,149.892 L33.766,150.788 L31.96,150.788 L31.96,154.008 L31.036,154.008 L31.036,150.788 L28.852,150.788 C28.768,151.53 28.6,152.16 28.348,152.664 C28.012,153.322 27.438,153.84 26.654,154.204 L26.15,153.406 C26.836,153.07 27.326,152.622 27.606,152.062 C27.76,151.698 27.872,151.264 27.942,150.788 L26.15,150.788 L26.15,149.892 Z M31.036,149.892 L31.036,148.282 L28.922,148.282 L28.922,149.892 L31.036,149.892 Z M25.226,144.558 L25.226,145.58 L28.376,145.58 L28.376,144.558 L25.226,144.558 Z M28.376,143.844 L28.376,142.766 L25.226,142.766 L25.226,143.844 L28.376,143.844 Z M31.512,144.558 L31.512,145.552 L34.746,145.552 L34.746,144.558 L31.512,144.558 Z M34.746,143.844 L34.746,142.794 L31.512,142.794 L31.512,143.844 L34.746,143.844 Z M29.356,141.968 L29.356,146.392 L25.226,146.392 L25.226,154.274 L24.218,154.274 L24.218,141.968 L29.356,141.968 Z M34.746,146.35 L30.532,146.35 L30.532,141.982 L35.74,141.982 L35.74,152.832 C35.74,153.756 35.32,154.218 34.48,154.218 C33.976,154.218 33.472,154.204 32.968,154.176 L32.73,153.28 C33.234,153.308 33.696,153.336 34.116,153.336 C34.536,153.336 34.746,153.056 34.746,152.524 L34.746,146.35 Z M39.296,141.506 L40.29,141.59 C40.164,142.542 40.038,143.424 39.912,144.236 L41.984,144.236 L41.984,144.824 C41.872,147.092 41.48,149.038 40.808,150.69 C41.466,151.376 42.012,151.992 42.432,152.552 L41.76,153.336 C41.368,152.818 40.906,152.258 40.36,151.67 C39.8,152.734 39.114,153.658 38.274,154.442 L37.644,153.644 C38.47,152.888 39.142,151.992 39.674,150.928 C39.114,150.354 38.512,149.766 37.868,149.15 C38.204,147.932 38.498,146.616 38.75,145.202 L37.63,145.202 L37.63,144.236 L38.918,144.236 C39.058,143.354 39.184,142.444 39.296,141.506 Z M40.094,149.962 C40.626,148.562 40.934,146.98 41.032,145.202 L39.758,145.202 C39.492,146.672 39.226,147.89 38.946,148.856 C39.352,149.234 39.73,149.598 40.094,149.962 Z M49.376,148.45 L49.376,154.414 L48.41,154.414 L48.41,153.574 L44.126,153.574 L44.126,154.414 L43.16,154.414 L43.16,148.45 L49.376,148.45 Z M44.126,152.622 L48.41,152.622 L48.41,149.374 L44.126,149.374 L44.126,152.622 Z M42.614,147.19 L42.46,146.28 C43.272,145.86 44.28,144.292 45.484,141.548 L46.436,141.87 C45.596,143.69 44.77,145.132 43.93,146.21 C45.498,146.112 46.996,145.944 48.41,145.72 C48.018,144.95 47.626,144.236 47.22,143.592 L48.088,143.172 C48.858,144.404 49.586,145.748 50.258,147.218 L49.32,147.666 C49.152,147.288 48.998,146.924 48.83,146.574 C46.968,146.84 44.896,147.05 42.614,147.19 Z" id="開始" fill="#2A3052" fill-rule="nonzero"></path>
            <path d="M2,115.5 L293,115.5" id="Path" stroke="#2A3052" stroke-width="1.21125" stroke-linejoin="round"></path>
            <path d="M0,32.5 L295,32.5" id="Path" stroke="#C2C2C2" stroke-width="2.422875"></path>
            <polyline id="Path" stroke="#2A3052" stroke-width="3.634125" stroke-linecap="round" stroke-linejoin="round" points="38 114.478751 66.3853211 88.2391192 105.020897 127.150025 140.389908 76.1285201 190.627421 131 232.792389 58 259 73.9605734"></polyline>
            <path d="M186.298248,146.289613 L151.3731,146.289613 L146,138 L140.6269,146.289613 L105.701752,146.289613 C104.443691,146.295584 103.239948,146.810394 102.357388,147.719913 C101.474826,148.629432 100.986364,149.858516 101.00029,151.134683 L101.00029,176.15493 C100.983724,178.808221 103.086301,180.975022 105.701752,181 L186.298248,181 C187.556309,180.99403 188.760052,180.47922 189.642612,179.5697 C190.525174,178.660181 191.013636,177.431097 190.99971,176.15493 L190.99971,151.134683 C191.016276,148.481393 188.913699,146.314592 186.298248,146.289613 Z" id="Path" fill="#E88024"></path>
            <g id="Group" opacity="0.6" transform="translate(250.000000, 66.000000)" fill="#FFFFFF">
                <ellipse id="Oval" cx="8.5125" cy="8.6771698" rx="8.1375" ry="8.48566038"></ellipse>
            </g>
            <ellipse id="Oval" stroke="#E88024" stroke-width="2.422875" cx="258" cy="74.5" rx="8" ry="8.5"></ellipse>
            <g id="Group" opacity="0.6" transform="translate(28.000000, 106.000000)" fill="#FFFFFF">
                <ellipse id="Oval" cx="9.0375" cy="9.0764151" rx="8.1375" ry="8.48566038"></ellipse>
            </g>
            <ellipse id="Oval" stroke="#E88024" stroke-width="2.422875" cx="37" cy="115.5" rx="8" ry="8.5"></ellipse>
            <path d="M21.792,11.73 C22.534,12.402 23.164,13.06 23.682,13.718 L22.66,14.74 C22.212,14.11 21.582,13.438 20.756,12.724 L21.792,11.73 Z M21.442,15.076 C22.198,15.748 22.842,16.434 23.346,17.106 L22.338,18.114 C21.89,17.47 21.246,16.798 20.42,16.07 L21.442,15.076 Z M22.114,18.842 L23.402,19.36 C22.954,21.152 22.45,22.832 21.918,24.4 L20.56,23.784 C21.162,22.174 21.68,20.522 22.114,18.842 Z M32.88,11.912 L32.88,13.2 L29.366,13.2 L29.366,13.97 L32.474,13.97 L32.474,15.202 L29.366,15.202 L29.366,16 L32.474,16 L32.474,17.232 L29.366,17.232 L29.366,18.002 L33.216,18.002 L33.216,19.318 L31.158,19.318 C31.214,19.682 31.312,20.046 31.438,20.382 C31.774,20.186 32.082,19.948 32.39,19.668 L33.258,20.536 C32.866,20.9 32.418,21.208 31.914,21.432 C32.32,22.132 32.852,22.72 33.524,23.21 L32.768,24.442 C31.242,23.168 30.318,21.46 29.982,19.318 L29.198,19.318 L29.198,22.832 C29.702,22.678 30.192,22.482 30.668,22.258 L30.906,23.462 C29.996,23.854 28.946,24.19 27.77,24.442 L27.252,23.336 C27.686,23.168 27.91,22.93 27.91,22.608 L27.91,19.318 L27.21,19.318 L27.21,18.002 L27.994,18.002 L27.994,11.912 L32.88,11.912 Z M25.096,16.392 L24.914,18.366 L26.986,18.366 C26.986,20.718 26.916,22.286 26.79,23.084 C26.664,23.882 26.09,24.316 25.068,24.4 C24.76,24.4 24.452,24.386 24.144,24.358 L23.808,23.126 C24.116,23.154 24.438,23.182 24.76,23.182 C25.25,23.182 25.53,22.958 25.6,22.51 C25.656,22.048 25.698,21.096 25.698,19.64 L23.612,19.64 L23.99,15.118 L25.628,15.118 L25.628,13.2 L23.822,13.2 L23.822,11.926 L26.916,11.926 L26.916,16.392 L25.096,16.392 Z" id="漲" fill="#000000" fill-rule="nonzero"></path>
            <path d="M257.032,125.784 L257.032,136.188 L256.168,136.188 L256.168,135.408 L249.856,135.408 L249.856,136.212 L248.98,136.212 L248.98,125.784 L257.032,125.784 Z M249.856,134.568 L256.168,134.568 L256.168,132.312 L249.856,132.312 L249.856,134.568 Z M249.856,131.52 L256.168,131.52 L256.168,129.408 L249.856,129.408 L249.856,131.52 Z M249.856,128.616 L256.168,128.616 L256.168,126.624 L249.856,126.624 L249.856,128.616 Z M262.132,129.804 L262.132,136.176 L261.328,136.176 L261.328,129.912 C260.956,131.112 260.464,132.204 259.864,133.188 L259.492,132.24 C260.332,131.052 260.92,129.696 261.28,128.16 L259.852,128.16 L259.852,127.368 L261.328,127.368 L261.328,125.196 L262.132,125.196 L262.132,127.368 L263.44,127.368 L263.44,128.16 L262.132,128.16 L262.132,128.868 C262.66,129.48 263.2,130.164 263.728,130.92 L263.224,131.676 C262.804,130.908 262.444,130.284 262.132,129.804 Z M263.98,127.284 L265.744,127.284 L265.744,126.384 L263.644,126.384 L263.644,125.64 L270.292,125.64 L270.292,126.384 L268.3,126.384 L268.3,127.284 L270.052,127.284 L270.052,130.056 L263.98,130.056 L263.98,127.284 Z M267.58,126.384 L266.464,126.384 L266.464,127.284 L267.58,127.284 L267.58,126.384 Z M269.296,129.384 L269.296,127.956 L268.24,127.956 L268.24,129.384 L269.296,129.384 Z M267.568,129.384 L267.568,127.956 L266.476,127.956 L266.476,129.384 L267.568,129.384 Z M265.804,129.384 L265.804,127.956 L264.736,127.956 L264.736,129.384 L265.804,129.384 Z M266.416,136.164 L265.42,136.164 L265.252,135.396 C265.564,135.42 265.852,135.444 266.14,135.444 C266.404,135.444 266.548,135.312 266.548,135.072 L266.548,133.128 L263.716,133.128 L263.716,132.384 L270.316,132.384 L270.316,133.128 L267.34,133.128 L267.34,135.264 C267.34,135.864 267.028,136.164 266.416,136.164 Z M264.268,130.824 L269.836,130.824 L269.836,131.568 L264.268,131.568 L264.268,130.824 Z M264.916,133.62 L265.468,134.1 C264.94,134.868 264.28,135.552 263.512,136.128 L263.02,135.492 C263.764,134.952 264.4,134.328 264.916,133.62 Z M268.792,133.632 C269.5,134.256 270.088,134.88 270.568,135.504 L269.992,136.068 C269.584,135.468 269.008,134.82 268.264,134.136 L268.792,133.632 Z" id="目標" fill="#6D6E71" fill-rule="nonzero"></path>
            <path d="M246.204,102.858 L247.114,102.97 C247.044,104.174 246.876,105.252 246.61,106.176 L245.7,105.91 C245.98,105.014 246.148,104.006 246.204,102.858 Z M248.598,102.648 C248.794,103.516 248.976,104.468 249.144,105.504 L248.206,105.714 C248.08,104.622 247.94,103.67 247.772,102.83 L248.598,102.648 Z M249.984,99.092 C250.292,99.89 250.572,100.8 250.824,101.836 L249.984,102.06 C249.928,101.822 249.872,101.584 249.816,101.36 C248.5,101.752 247.226,102.018 246.022,102.172 L245.756,101.248 C245.938,101.178 246.092,101.08 246.218,100.968 C246.736,100.464 247.352,99.624 248.08,98.448 C247.38,98.56 246.652,98.672 245.924,98.784 L245.672,97.86 C245.826,97.79 245.966,97.664 246.092,97.482 C246.82,96.334 247.436,95.004 247.968,93.52 L248.934,93.898 C248.248,95.508 247.548,96.81 246.848,97.79 C247.436,97.72 248.038,97.636 248.626,97.538 C248.934,97.006 249.242,96.432 249.578,95.83 L250.516,96.166 C249.172,98.518 248.08,100.17 247.212,101.122 C247.996,100.982 248.794,100.814 249.606,100.604 C249.466,100.17 249.326,99.75 249.186,99.344 L249.984,99.092 Z M250.222,102.284 C250.558,103.012 250.838,103.81 251.09,104.65 L250.25,105.014 C249.998,104.09 249.732,103.264 249.438,102.536 L250.222,102.284 Z M250.656,95.368 L254.044,95.368 L254.044,93.576 L255.038,93.576 L255.038,95.368 L258.384,95.368 L258.384,96.334 L255.038,96.334 L255.038,98.462 L258.076,98.462 L258.076,99.428 L251.034,99.428 L251.034,98.462 L254.044,98.462 L254.044,96.334 L250.656,96.334 L250.656,95.368 Z M257.628,100.786 L257.628,106.4 L256.648,106.4 L256.648,105.756 L252.504,105.756 L252.504,106.4 L251.524,106.4 L251.524,100.786 L257.628,100.786 Z M252.504,104.804 L256.648,104.804 L256.648,101.738 L252.504,101.738 L252.504,104.804 Z M260.008,95.004 L265.482,95.004 L265.482,93.604 L266.518,93.604 L266.518,95.004 L271.964,95.004 L271.964,95.97 L266.518,95.97 L266.518,97.342 L270.928,97.342 L270.928,101.304 L267.372,101.304 C268.38,102.732 270.088,103.992 272.468,105.112 L271.782,105.98 C269.304,104.594 267.568,103.04 266.56,101.304 L266.518,101.304 L266.518,106.386 L265.482,106.386 L265.482,101.304 L265.44,101.304 C264.376,103.208 262.612,104.776 260.134,106.008 L259.546,105.084 C261.87,104.104 263.564,102.844 264.614,101.304 L261.1,101.304 L261.1,97.342 L265.482,97.342 L265.482,95.97 L260.008,95.97 L260.008,95.004 Z M269.92,100.38 L269.92,98.294 L266.518,98.294 L266.518,100.38 L269.92,100.38 Z M265.482,100.38 L265.482,98.294 L262.108,98.294 L262.108,100.38 L265.482,100.38 Z" id="結束" fill="#2A3052" fill-rule="nonzero"></path>
            <path d="M138.718,167.04 L138.718,167.92 C138.718,168.052 138.696,168.184 138.696,168.316 L140.456,168.316 L140.456,167.04 L138.718,167.04 Z M140.456,165.61 L140.456,164.312 L138.718,164.312 L138.718,165.61 L140.456,165.61 Z M138.586,169.746 C138.366,171.154 137.904,172.342 137.244,173.31 L135.858,172.056 C136.606,171 136.98,169.658 137.002,168.03 L137.002,162.706 L142.172,162.706 L142.172,171.638 C142.172,172.672 141.6,173.2 140.5,173.2 L139.488,173.2 L139.026,171.484 C139.356,171.528 139.664,171.572 139.972,171.572 C140.28,171.572 140.456,171.374 140.456,171.022 L140.456,169.746 L138.586,169.746 Z M137.86,155.688 L136.166,155.688 L136.166,154.06 L144.812,154.06 C144.636,153.73 144.438,153.422 144.262,153.158 L146.528,152.762 C146.748,153.158 146.946,153.576 147.144,154.06 L155.834,154.06 L155.834,155.688 L139.884,155.688 L139.884,156.458 L154.514,156.458 L154.514,157.932 L137.86,157.932 L137.86,155.688 Z M154.888,172.892 L153.744,172.892 C152.908,172.892 152.512,172.496 152.512,171.704 L152.512,168.866 L151.918,169.284 C151.61,168.756 151.258,168.184 150.862,167.59 C150.84,168.91 150.752,169.944 150.576,170.692 C150.356,171.506 149.894,172.386 149.212,173.31 L148.068,172.298 L147.518,172.914 C146.99,172.232 146.418,171.638 145.824,171.154 L146.88,170.186 C147.386,170.56 147.848,170.978 148.266,171.44 C148.552,170.956 148.75,170.538 148.86,170.142 C149.036,169.526 149.146,168.514 149.146,167.084 L149.146,162.728 L154.228,162.728 L154.228,171.198 C154.228,171.308 154.272,171.374 154.382,171.374 L154.624,171.374 C154.712,171.374 154.778,171.264 154.844,171.044 C154.888,170.824 154.932,170.054 154.976,168.756 L156.362,169.218 C156.23,170.89 156.076,171.902 155.9,172.298 C155.724,172.694 155.372,172.892 154.888,172.892 Z M150.862,166.424 L151.412,166.072 C151.852,166.622 152.204,167.128 152.512,167.612 L152.512,164.422 L150.862,164.422 L150.862,166.424 Z M143.008,162.728 L148.244,162.728 L148.244,170.076 L143.008,170.076 L143.008,162.728 Z M146.528,168.778 L146.528,167.898 L144.702,167.898 L144.702,168.778 L146.528,168.778 Z M144.702,166.842 L146.528,166.842 L146.528,165.984 L144.702,165.984 L144.702,166.842 Z M144.702,164.906 L146.528,164.906 L146.528,164.026 L144.702,164.026 L144.702,164.906 Z M144.35,170.23 L145.428,171.198 C144.878,171.99 144.196,172.672 143.404,173.266 L142.436,172.012 C143.184,171.506 143.822,170.912 144.35,170.23 Z M138.564,158.592 L153.37,158.592 L153.37,162.002 L138.564,162.002 L138.564,158.592 Z M151.236,160.748 L151.236,159.846 L140.698,159.846 L140.698,160.748 L151.236,160.748 Z" id="贏" fill="#FFFFFF" fill-rule="nonzero"></path>
        </g>
    </g>
</svg>
